icons/flowchart-16.svg

<svg width="16" height="16" viewBox="0 0 16 16" fill="none" xmlns="http://www.w3.org/2000/svg">
<path d="M9.25 5C9.44891 5 9.63968 4.92098 9.78033 4.78033C9.92098 4.63968 10 4.44891 10 4.25C10 4.05109 9.92098 3.86032 9.78033 3.71967C9.63968 3.57902 9.44891 3.5 9.25 3.5V5ZM7.25 3.5C7.05109 3.5 6.86032 3.57902 6.71967 3.71967C6.57902 3.86032 6.5 4.05109 6.5 4.25C6.5 4.44891 6.57902 4.63968 6.71967 4.78033C6.86032 4.92098 7.05109 5 7.25 5V3.5ZM14.25 12.25L14.78 12.78C15.08 12.48 15.08 12.01 14.78 11.72L14.25 12.25ZM12.78 9.72C12.7113 9.64631 12.6285 9.58721 12.5365 9.54622C12.4445 9.50523 12.3452 9.48318 12.2445 9.48141C12.1438 9.47963 12.0438 9.49816 11.9504 9.53588C11.857 9.5736 11.7722 9.62974 11.701 9.70096C11.6297 9.77218 11.5736 9.85701 11.5359 9.9504C11.4982 10.0438 11.4796 10.1438 11.4814 10.2445C11.4832 10.3452 11.5052 10.4445 11.5462 10.5365C11.5872 10.6285 11.6463 10.7113 11.72 10.78L12.25 10.25L12.78 9.72ZM11.72 13.72C11.6463 13.7887 11.5872 13.8715 11.5462 13.9635C11.5052 14.0555 11.4832 14.1548 11.4814 14.2555C11.4796 14.3562 11.4982 14.4562 11.5359 14.5496C11.5736 14.643 11.6297 14.7278 11.701 14.799C11.7722 14.8703 11.857 14.9264 11.9504 14.9641C12.0438 15.0018 12.1438 15.0204 12.2445 15.0186C12.3452 15.0168 12.4445 14.9948 12.5365 14.9538C12.6285 14.9128 12.7113 14.8537 12.78 14.78L12.25 14.25L11.72 13.72ZM13.25 13C13.4489 13 13.6397 12.921 13.7803 12.7803C13.921 12.6397 14 12.4489 14 12.25C14 12.0511 13.921 11.8603 13.7803 11.7197C13.6397 11.579 13.4489 11.5 13.25 11.5V13ZM7.25 11.5C7.05109 11.5 6.86032 11.579 6.71967 11.7197C6.57902 11.8603 6.5 12.0511 6.5 12.25C6.5 12.4489 6.57902 12.6397 6.71967 12.7803C6.86032 12.921 7.05109 13 7.25 13V11.5ZM10.78 6.78L11.31 6.25L10.25 5.19L9.72 5.72L10.25 6.25L10.78 6.78ZM5.72 9.72L5.19 10.25L6.25 11.31L6.78 10.78L6.25 10.25L5.72 9.72ZM9.25 4.25V3.5H7.25V5H9.25V4.25ZM14.25 12.25L14.78 11.72L12.78 9.72L12.25 10.25L11.72 10.78L13.72 12.78L14.25 12.25ZM14.25 12.25L13.72 11.72L11.72 13.72L12.25 14.25L12.78 14.78L14.78 12.78L14.25 12.25ZM13.25 12.25V11.5H7.25V13H13.25V12.25ZM10.25 6.25L9.72 5.72L5.72 9.72L6.25 10.25L6.78 10.78L10.78 6.78L10.25 6.25ZM3.25 2V2.75H5.25V1.25H3.25V2ZM5.25 2V2.75C5.53 2.75 5.75 2.97 5.75 3.25H7.25C7.25 2.71957 7.03929 2.21086 6.66421 1.83579C6.28914 1.46071 5.78043 1.25 5.25 1.25V2ZM6.5 3.25H5.75V5.25H7.25V3.25H6.5ZM6.5 5.25H5.75C5.75 5.38261 5.69732 5.50979 5.60355 5.60355C5.50979 5.69732 5.38261 5.75 5.25 5.75V7.25C5.78043 7.25 6.28914 7.03929 6.66421 6.66421C7.03929 6.28914 7.25 5.78043 7.25 5.25H6.5ZM5.25 6.5V5.75H3.25V7.25H5.25V6.5ZM3.25 6.5V5.75C3.11739 5.75 2.99021 5.69732 2.89645 5.60355C2.80268 5.50979 2.75 5.38261 2.75 5.25H1.25C1.25 6.35 2.15 7.25 3.25 7.25V6.5ZM2 5.25H2.75V3.25H1.25V5.25H2ZM2 3.25H2.75C2.75 2.97 2.97 2.75 3.25 2.75V1.25C2.71957 1.25 2.21086 1.46071 1.83579 1.83579C1.46071 2.21086 1.25 2.71957 1.25 3.25H2ZM11.25 2V2.75H13.25V1.25H11.25V2ZM13.25 2V2.75C13.53 2.75 13.75 2.97 13.75 3.25H15.25C15.25 2.71957 15.0393 2.21086 14.6642 1.83579C14.2891 1.46071 13.7804 1.25 13.25 1.25V2ZM14.5 3.25H13.75V5.25H15.25V3.25H14.5ZM14.5 5.25H13.75C13.75 5.38261 13.6973 5.50979 13.6036 5.60355C13.5098 5.69732 13.3826 5.75 13.25 5.75V7.25C13.7804 7.25 14.2891 7.03929 14.6642 6.66421C15.0393 6.28914 15.25 5.78043 15.25 5.25H14.5ZM13.25 6.5V5.75H11.25V7.25H13.25V6.5ZM11.25 6.5V5.75C11.1174 5.75 10.9902 5.69732 10.8964 5.60355C10.8027 5.50979 10.75 5.38261 10.75 5.25H9.25C9.25 6.35 10.15 7.25 11.25 7.25V6.5ZM10 5.25H10.75V3.25H9.25V5.25H10ZM10 3.25H10.75C10.75 2.97 10.97 2.75 11.25 2.75V1.25C10.7196 1.25 10.2109 1.46071 9.83579 1.83579C9.46071 2.21086 9.25 2.71957 9.25 3.25H10ZM3.25 10V10.75H5.25V9.25H3.25V10ZM5.25 10V10.75C5.53 10.75 5.75 10.97 5.75 11.25H7.25C7.25 10.7196 7.03929 10.2109 6.66421 9.83579C6.28914 9.46071 5.78043 9.25 5.25 9.25V10ZM6.5 11.25H5.75V13.25H7.25V11.25H6.5ZM6.5 13.25H5.75C5.75 13.3826 5.69732 13.5098 5.60355 13.6036C5.50979 13.6973 5.38261 13.75 5.25 13.75V15.25C5.78043 15.25 6.28914 15.0393 6.66421 14.6642C7.03929 14.2891 7.25 13.7804 7.25 13.25H6.5ZM5.25 14.5V13.75H3.25V15.25H5.25V14.5ZM3.25 14.5V13.75C3.11739 13.75 2.99021 13.6973 2.89645 13.6036C2.80268 13.5098 2.75 13.3826 2.75 13.25H1.25C1.25 14.35 2.15 15.25 3.25 15.25V14.5ZM2 13.25H2.75V11.25H1.25V13.25H2ZM2 11.25H2.75C2.75 10.97 2.97 10.75 3.25 10.75V9.25C2.71957 9.25 2.21086 9.46071 1.83579 9.83579C1.46071 10.2109 1.25 10.7196 1.25 11.25H2Z" fill="black"/>
</svg>

<svg xmlns="http://www.w3.org/2000/svg" width="16" height="16" viewBox="0 0 16 16"><path d="M9.25 5c.199 0 .39-.079.53-.22a.747.747 0 0 0 0-1.06.747.747 0 0 0-.53-.22V5Zm-2-1.5a.747.747 0 0 0-.53.22.747.747 0 0 0 0 1.06c.14.141.331.22.53.22V3.5Zm7 8.75.53.53c.3-.3.3-.77 0-1.06l-.53.53Zm-1.47-2.53a.748.748 0 0 0-1.244.23.76.76 0 0 0 .184.83l.53-.53.53-.53Zm-1.06 4a.748.748 0 0 0 .23 1.244.76.76 0 0 0 .83-.184l-.53-.53-.53-.53Zm1.53-.72c.199 0 .39-.079.53-.22a.747.747 0 0 0 0-1.06.747.747 0 0 0-.53-.22V13Zm-6-1.5a.747.747 0 0 0-.53.22.747.747 0 0 0 0 1.06c.14.141.331.22.53.22v-1.5Zm3.53-4.72.53-.53-1.06-1.06-.53.53.53.53.53.53ZM5.72 9.72l-.53.53 1.06 1.06.53-.53-.53-.53-.53-.53Zm3.53-5.47V3.5h-2V5h2v-.75Zm5 8 .53-.53-2-2-.53.53-.53.53 2 2 .53-.53Zm0 0-.53-.53-2 2 .53.53.53.53 2-2-.53-.53Zm-1 0v-.75h-6V13h6v-.75Zm-3-6-.53-.53-4 4 .53.53.53.53 4-4-.53-.53ZM3.25 2v.75h2v-1.5h-2V2Zm2 0v.75c.28 0 .5.22.5.5h1.5a2 2 0 0 0-2-2V2ZM6.5 3.25h-.75v2h1.5v-2H6.5Zm0 2h-.75c0 .133-.053.26-.146.354a.504.504 0 0 1-.354.146v1.5a2 2 0 0 0 2-2H6.5ZM5.25 6.5v-.75h-2v1.5h2V6.5Zm-2 0v-.75a.504.504 0 0 1-.354-.146.504.504 0 0 1-.146-.354h-1.5c0 1.1.9 2 2 2V6.5ZM2 5.25h.75v-2h-1.5v2H2Zm0-2h.75c0-.28.22-.5.5-.5v-1.5a2 2 0 0 0-2 2H2ZM11.25 2v.75h2v-1.5h-2V2Zm2 0v.75c.28 0 .5.22.5.5h1.5a2 2 0 0 0-2-2V2Zm1.25 1.25h-.75v2h1.5v-2h-.75Zm0 2h-.75c0 .133-.053.26-.146.354a.504.504 0 0 1-.354.146v1.5a2 2 0 0 0 2-2h-.75ZM13.25 6.5v-.75h-2v1.5h2V6.5Zm-2 0v-.75a.504.504 0 0 1-.354-.146.504.504 0 0 1-.146-.354h-1.5c0 1.1.9 2 2 2V6.5ZM10 5.25h.75v-2h-1.5v2H10Zm0-2h.75c0-.28.22-.5.5-.5v-1.5a2 2 0 0 0-2 2H10ZM3.25 10v.75h2v-1.5h-2V10Zm2 0v.75c.28 0 .5.22.5.5h1.5a2 2 0 0 0-2-2V10Zm1.25 1.25h-.75v2h1.5v-2H6.5Zm0 2h-.75c0 .133-.053.26-.146.354a.504.504 0 0 1-.354.146v1.5a2 2 0 0 0 2-2H6.5ZM5.25 14.5v-.75h-2v1.5h2v-.75Zm-2 0v-.75a.504.504 0 0 1-.354-.146.504.504 0 0 1-.146-.354h-1.5c0 1.1.9 2 2 2v-.75ZM2 13.25h.75v-2h-1.5v2H2Zm0-2h.75c0-.28.22-.5.5-.5v-1.5a2 2 0 0 0-2 2H2Z"/></svg>
